X:1
T:Miss Scot
M:C
L:1/8
R:Reel
S:Glen Collection (1895)
Z:AK/Fiddler’s Companion
K:Bb
(F|D)B,DF (BcB)F|DFBd c(CCE)|FDEG AFBg|fdcd B/B/B B:|
f|(def)B egfB|cedB A(cce)|(d/c/d/e/ f)B egfd|ecfd B/B/B (Bf)|
(def)B egfd|cedB A(cce)|dBAc (BAB)F|Ggfd B/B/B B||

